X: 1
T: Banks of Loch Ness
N: Fraser p.6, Hunter 164
Z: John Chambers <jc@trillian.mit.edu>
M: 4/4
L: 1/8
K: Gm
F |\
"Gm"D<G G>A B>c d<f | "F"F<F F>D "(Bb)"{D}F2 F<B |\
"Gm"G<G G>A B>c d<f | "D7"d/c/B/A/ d>[^FD] "Gm"[G3B,3] :|
f |\
"Bb"{e}d>B f>B "Eb"g>B "Bb"d>f | "Bb"F<F F>D "F7"F2 F<f |\
"Bb"d>f B>d "F"c>B "D7"c<d | "Gm"G<G "D7"G>^F "Gm"G3 ||
f |\
"Bb"{e}d>B f>B "Eb"g>B "F7"f>e | "Bb"{e}d>B "D7"c>A "Gm"B>G FD |\
"Eb"{ga}b>a g>f "Bb"d<b "F"a>B | "Cm"A<e "D7"d>^F "Gm"G3 |]
